X:1
T:Title
%%score { ( 1 3 ) | 2 }
L:1/8
Q:1/4=78
M:6/8
K:G
V:1 treble nm="Grand Piano"
V:3 treble 
V:2 bass 
V:1
 EEE E^DE | [EG][EG][EG] [EG]3 | AAA ABc | [EG][D=F][CE] [B,D]3 | EEE E^DE | [EG][EG][EG] [EG]3 | %6
w: C.~V.~Frisinger * * * * *||||||
 DG>A BGA | [B,G]6 | [Ec][EG]>[EA] [Ec][EB][EA] | [=FB]6 | dG>B dcB |[M:5/8] [Ec]-[Ec]- [Ec]3 | %12
w: ||||||
[M:1/8] G/G/ |[M:3/4] [Ec][Ec] [Ec][Ec] [EG]E |[M:7/8] AAA c3 A |[M:3/4] Gc- c/d/e cd | [Ec]6 |] %17
w: |||||
V:2
 [C,G,C][C,G,C][C,G,C] [C,G,C][C,F,C][C,G,C] | [C,C][C,C][C,C] [C,C]3 | %2
 [=F,C=F][F,CF][F,CF] [F,CF][F,B,F][F,A,F] | [C,G,][C,G,][C,G,] [G,,G,]3 | %4
 [C,G,C][C,G,C][C,G,C] [C,G,C][C,F,C][C,G,C] | [C,C][C,C][C,C] [C,C]3 | %6
 [D,G,B,][D,G,B,]>[D,F,C] [D,G,D][D,G,B,][D,F,C] | [G,,D,]6 | %8
 [C,G,][C,G,]>[C,G,] [C,G,][C,G,][C,G,] | [D,G,]D,D, .D,3 | %10
 [G,B,=F][G,B,F]>[G,B,F] [G,B,F][G,CF][G,DF] |[M:5/8][K:bass] [C,C]C,C, C,2 |[M:1/8] G,/G,/ | %13
[M:3/4] [C,G,][C,G,] [C,G,][C,_B,] [C,B,][C,B,C] |[M:7/8] [=F,A,C][F,C=F][F,CF] [^F,A,^D]3 [F,CD] | %15
[M:3/4][K:treble] [G,CE][G,CE]- [G,CE]/[G,B,=F]/[G,CG] [G,CE][G,B,F] | [C,G,]6 |] %17
V:3
 x6 | x6 | x6 | x6 | x6 | x6 | x6 | x6 | x6 | z G,G, .G,3 | x6 |[M:5/8] z B,A, G,2 |[M:1/8] x | %13
[M:3/4] x6 |[M:7/8] x7 |[M:3/4] x6 | x6 |] %17

